X: 41
T: JIG: Frost Is All Over
T: Kitty Lie Over
C: C: Trad.; S: Various
C: Set Leaders: Oliushka, Anton, Sophie
Z: [Unedited]; uilleannpipes at The Session
N: https://thesession.org/members/26966/sets/95963
R: Jig
M: 6/8
L: 1/8
Q: 3/8=116
K: Gmaj
d2B|AFD DFA|Add B2A|ABA ~F3|GFG EFG|
AFD DFA|Add B2A|ABA F2E|1 EDD:|2 EDD D2||
e|fdd ede|fdd d2e|fdd def|g2e efg|
afd B2A|AdF G2B|ABA F2E|EDD D2:||

